!!!COM: Music21
!!!OTL: jig_Albuquerque--The
!!!OMV: jig_Albuquerque--The
**kern
*clefG2
*k[f#]
*G:
*M6/8
=1
8ddL
8ccJ
=||
8bL
8g
8gJ
8f#L
8g
8ccJ
=
8eeL
8cc
8ccJ
8eeL
8ff#
8ggJ
=
8aaL
8ff#
8ff#J
8ggL
8ee
8ddJ
=
8ddL
8d
8dJ
8f#L
8e
8dJ
=
8bL
8g
8gJ
8f#L
8g
8bJ
=
8eeL
8cc
8ccJ
8eeL
8ff#
8ggJ
!!linebreak:original
=
8dL
8f#
8aJ
8ccL
8a
8dJ
=
8dL
8g
8f#J
8gL
8dd
8ccJ
=||
8bL
8g
8gJ
8f#L
8g
8ccJ
=
8eeL
8cc
8ccJ
8eeL
8ff#
8ggJ
=
8aaL
8ff#
8ff#J
8ggL
8ee
8ddJ
=
8ddL
8d
8dJ
8f#L
8e
8dJ
!!linebreak:original
=
8bL
8g
8gJ
8f#L
8g
8bJ
=
8eeL
8cc
8ccJ
8eeL
8ff#
8ggJ
=
8dL
8f#
8aJ
8ccL
8a
8dJ
=
8dL
8g
8f#J
8gL
8dd
8ccJ
=||
8bL
8dd
8ddJ
8ddL
8b
8ddJ
=
8eeL
8cc
8aJ
4g
8f#
!!linebreak:original
=
8eL
8f#
8gJ
8f#L
8g
8aJ
=
8bL
8cc
8bJ
8aL
8g
8f#J
=
8gL
8b
8ddJ
8ddL
8b
8gJ
=
8bL
8cc
8eeJ
8ff#L
8gg
8aaJ
=
8bbL
8gg
8ggJ
8ff#L
8ee
8ddJ
=
8ccL
8a
8f#J
8dL
8dd
8ccJ
!!linebreak:original
=||
8bL
8dd
8ddJ
8ddL
8b
8ddJ
=
8eeL
8cc
8aJ
4g
8f#
=
8eL
8f#
8gJ
8f#L
8g
8aJ
=
8bL
8cc
8bJ
8aL
8g
8f#J
=
8gL
8b
8ddJ
8ddL
8b
8gJ
=
8bL
8cc
8eeJ
8ff#L
8gg
8aaJ
=
8bbL
8gg
8ggJ
8ff#L
8ee
8ddJ
!!linebreak:original
=
8ccL
8a
8f#J
8dL
8dd
8ccJ
=||
*-
